ressources/icons/edit-cut.svg

<svg height="16" viewBox="0 0 16 16" width="16" xmlns="http://www.w3.org/2000/svg"><path d="m4.4980469 2.0078125c-1.379787.001073-2.4980469 1.1199622-2.4980469 2.5 0 1.3807 1.1193 2.5 2.5 2.5.44608 0 .85613-.13902 1.21875-.34375l1.96875 1.84375-1.96875 1.8437495c-.36-.204999-.7707031-.34375-1.2207031-.34375-1.3807 0-2.5 1.119301-2.5 2.5 0 1.3807 1.1193 2.5 2.5 2.5s2.5-1.1193 2.5-2.5c0-.22916-.03605-.44541-.09375-.65625l2.125-2.0624995 4.4687501 4.2187495h1.5v-1l-8.0937501-7.8437495c.0578-.21084.09375-.42709.09375-.65625 0-1.3800378-1.1182599-2.498927-2.4980469-2.5zm9.0019531 1-3.9375 3.71875 1.3125 1.28125 4.125-4v-1zm-9 .5c.55228 0 1 .44772 1 1s-.44772 1-1 1-1-.44772-1-1 .44772-1 1-1zm0 7.9999995c.55228 0 1 .44772 1 1 0 .552281-.44772 1-1 1s-1-.447719-1-1c0-.55228.44772-1 1-1z" fill="#404040"/></svg>

<svg xmlns="http://www.w3.org/2000/svg" width="16" height="16" viewBox="0 0 16 16">
 <defs>
  <style id="current-color-scheme" type="text/css">
   .ColorScheme-Text { color:#404040; } .ColorScheme-Highlight { color:#5294e2; }
  </style>
 </defs>
 <path style="fill:currentColor" class="ColorScheme-Text" d="M 4.4980469 2.0078125 C 3.1182599 2.0088855 2 3.1277747 2 4.5078125 C 2 5.8885125 3.1193 7.0078125 4.5 7.0078125 C 4.94608 7.0078125 5.35613 6.8687925 5.71875 6.6640625 L 7.6875 8.5078125 L 5.71875 10.351562 C 5.35875 10.146563 4.9480469 10.007812 4.4980469 10.007812 C 3.1173469 10.007812 1.9980469 11.127113 1.9980469 12.507812 C 1.9980469 13.888512 3.1173469 15.007812 4.4980469 15.007812 C 5.8787469 15.007812 6.9980469 13.888512 6.9980469 12.507812 C 6.9980469 12.278652 6.9619969 12.062402 6.9042969 11.851562 L 9.0292969 9.7890625 L 13.498047 14.007812 L 14.998047 14.007812 L 14.998047 13.007812 L 6.9042969 5.1640625 C 6.9620969 4.9532225 6.9980469 4.7369725 6.9980469 4.5078125 C 6.9980469 3.1277747 5.879787 2.0088855 4.5 2.0078125 L 4.4980469 2.0078125 z M 13.5 3.0078125 L 9.5625 6.7265625 L 10.875 8.0078125 L 15 4.0078125 L 15 3.0078125 L 13.5 3.0078125 z M 4.5 3.5078125 C 5.05228 3.5078125 5.5 3.9555325 5.5 4.5078125 C 5.5 5.0600925 5.05228 5.5078125 4.5 5.5078125 C 3.94772 5.5078125 3.5 5.0600925 3.5 4.5078125 C 3.5 3.9555325 3.94772 3.5078125 4.5 3.5078125 z M 4.5 11.507812 C 5.05228 11.507812 5.5 11.955532 5.5 12.507812 C 5.5 13.060093 5.05228 13.507812 4.5 13.507812 C 3.94772 13.507812 3.5 13.060093 3.5 12.507812 C 3.5 11.955532 3.94772 11.507812 4.5 11.507812 z"/>
</svg>
